www/assets/icons/toll.svg

<svg xmlns="http://www.w3.org/2000/svg" width="24" height="24" viewBox="0 0 24 24" fill='currentColor'><path d="M15 4c-4.42 0-8 3.58-8 8s3.58 8 8 8 8-3.58 8-8-3.58-8-8-8m0 14c-3.31 0-6-2.69-6-6s2.69-6 6-6 6 2.69 6 6-2.69 6-6 6M3 12a5.99 5.99 0 0 1 4-5.65V4.26C3.55 5.15 1 8.27 1 12s2.55 6.85 6 7.74v-2.09A5.99 5.99 0 0 1 3 12"/></svg>

<svg width="24" height="24" viewBox="0 0 24 24" xmlns="http://www.w3.org/2000/svg" fill='currentColor'><path d="M15 4C10.58 4 7 7.58 7 12C7 16.42 10.58 20 15 20C19.42 20 23 16.42 23 12C23 7.58 19.42 4 15 4ZM15 18C11.69 18 9 15.31 9 12C9 8.69 11.69 6 15 6C18.31 6 21 8.69 21 12C21 15.31 18.31 18 15 18Z"/><path d="M3 12C3 9.39 4.67 7.17 7 6.35V4.26C3.55 5.15 1 8.27 1 12C1 15.73 3.55 18.85 7 19.74V17.65C4.67 16.83 3 14.61 3 12Z"/></svg>
